X:3969
T:Man in a brown Hat (Cliff Stapleton)
O:england
M:2/4
L:1/16
K:C -8
c2cd B2A2|c2d2e4|e2ef d2a2|gaga egcg|\
A2cd B2A2|c2d2e4|e2ef edcd|B4A4:|
K:G -8
|:abc'b a2e2|g2f2e4|ABcd e2a2|\
gaga efge|abc'b a2e2|g2f2e4|ABcd edcd|B4A4:|
